X:1
T:The Glad New Year!
T:The Glad New Year!
T:Shaker hymn
%%score [ 1 2 3 4 ]
L:1/8
Q:1/4=95
M:4/4
K:D
V:1 treble nm="Soprano"
V:2 treble nm="Alto"
V:3 treble-8 nm="Tenor"
V:4 bass nm="Bass"
V:1
 F2 | F3 F F2 F2 | A2 A2 (AG) F2 | G3 A F2 G2 | E2 E2 E2 c2 | d3 B A2 d2 | A2 A2 (AG) (FE) | %7
w: 1.A-|long the sha- dowy|aisles of time, _ There|floats a mur- mur|soft and low, Now|swell- ing in har-|mo- nious chime, _ Sweet _|
 D2 A2 F2 (GE) | D2 D2 D2 A2 | d3 A F2 A2 | d2 (ce) d2 A2 | (dc) B2 A2 A2 | (AG) F2 E2 F2 | %13
w: notes in mea- sured _|num- bers flow. With|joy we catch the|glad- some _ strain, Which|fills _ our hearts with|lov- * ing cheer. And,|
 (G F) E2 D2 D2 | D2 F2 F2 d2 | A3 F A3 G | F2 E2 !fermata!D2 |] %17
w: ech- o- ing back a|full re- frain, Give|wel- come to the|Glad New Year!|
V:2
 D2 | D3 D D2 D2 | F2 F2 (FE) D2 | E3 F D2 E2 | C2 C2 C2 E2 | F3 G F2 F2 | F2 F2 (FE) (DC) | %7
w: 1.A-|long the sha- dowy|aisles of time, _ There|floats a mur- mur|soft and low, Now|swell- ing in har-|mo- nious chime, _ Sweet _|
 D2 F2 D2 (EC) | D2 D2 D2 F2 | F3 F D2 F2 | F2 (EG) F2 F2 | (FA) G2 F2 F2 | (FE) D2 C2 D2 | %13
w: notes in mea- sured _|num- bers flow. With|joy we catch the|glad- some _ strain, Which|fills _ our hearts with|lov- * ing cheer. And,|
 (E D) C2 D2 D2 | D2 D2 D2 F2 | F3 D F3 E | D2 C2 !fermata!D2 |] %17
w: ech- o- ing back a|full re- frain, Give|wel- come to the|Glad New Year!|
V:3
 A2 | A3 A A2 A2 | A2 A2 A2 A2 | G3 A A2 A2 | A2 A2 A2 A2 | A3 d d2 d2 | d2 d2 (AB) (AG) | %7
w: 1.A-|long the sha- dowy|aisles of time, There|floats a mur- mur|soft and low, Now|swell- ing in har-|mo- nious chime, _ Sweet _|
 A2 A2 A2 A2 | F2 F2 F2 d2 | d3 d d2 d2 | A2 A2 A2 d2 | d2 d2 d2 d2 | A2 A2 A2 A2 | %13
w: notes in mea- sured|num- bers flow. With|joy we catch the|glad- some strain, Which|fills our hearts with|lov- ing cheer. And,|
 (A A) G2 F2 F2 | F2 A2 A2 A2 | d3 d d3 B | A2 (AG) !fermata!F2 |] %17
w: ech- o- ing back a|full re- frain, Give|wel- come to the|Glad New _ Year!|
V:4
 D,2 | D,3 D, D,2 D,2 | D,2 D,2 D,2 D,2 | A,,3 A,, A,,2 A,,2 | A,,2 A,,2 A,,2 A,,2 | %5
w: 1.A-|long the sha- dowy|aisles of time, There|floats a mur- mur|soft and low, Now|
 D,3 D, D,2 D,2 | D,2 D,2 (D,E,) (F,G,) | F,2 A,,2 A,,2 A,,2 | D,2 A,,2 D,2 D,2 | D,3 D, D,2 D,2 | %10
w: swell- ing in har-|mo- nious chime, _ Sweet _|notes in mea- sured|num- bers flow. With|joy we catch the|
 D,2 A,,2 D,2 D,2 | D,2 D,2 D,2 D,2 | A,,2 A,,2 A,,2 A,,2 | (A,, A,,) A,,2 D,2 A,,2 | %14
w: glad- some strain, Which|fills our hearts with|lov- ing cheer. And,|ech- o- ing back a|
 D,2 D,2 D,2 D,2 | %15
w: full re- frain, Give|
"_2.Our hopes on star-ry pinions rise, High aspiration thrills our soul, \nA nobler life to realize, Ascending to perfections goal,\nThe past with joy and sorrow fraught, Shall from our vision disappear;\nThe present claims our earnest thought: All hail the bright, the Glad New Year!\n\n3.Like angels from rhe realms unseen, Lightwing'd the moments come and go,\nThe shining links of life, between Ethereal spheres and earth below,\nThey bear a record of the deeds That cloud, or make our pathway clear: \nBroadcast they sow time's precious seeds, And usher in the Glad New Year!\n\n4.We tread the vale of time and sense, Amid its phantomfleeting dreams,\nStill longing, with a hope intense, For something that enduring seems;\nYet duty's path we will pursue, Without a doubt or cringing fear;\nWith lofty aim and purpose true, We'll toil throughout the Glad New Year.\n\n5.The tender chords of purest love, With peace entwined, shall stronger grow!\nWe'll bear the spirit of the dove, And kindness to the erring show;\nWith gentle words, and Christlike deeds, A monument of good we'll rear;\nWhile bliss, that fills our spirit needs, Awaits us in the Glad New Year!\n" D,3 D, D,3 G,, | %16
w: wel- come to the|
 A,,2 A,,2 !fermata!D,2 |] %17
w: Glad New Year!|

